X:1
T:Blow, Boys, Blow
M:4/4
L:1/4
K:F
 F| A3/2 A/2 A F| A3/2 G/2 G F| G2 A2| B3 d| c A B G| F3/2 E/2 F G|\
 A c G/2G/2 c| F3||
